fe/src/assets/icons/arquivos.svg

<svg width="428" height="512" viewBox="0 0 428 512" fill="none" xmlns="http://www.w3.org/2000/svg">
<path d="M128.667 298.667H235.333V384H128.667V298.667ZM320.667 12.5013V106.667H414.832L320.667 12.5013ZM427.333 149.333V512H0.666656V64C0.666656 28.6507 29.3173 0 64.6667 0H278V149.333H427.333ZM342 256L278 304V256H86V426.667H278V378.667L342 426.667V256Z" fill="#7C7C7C"/>
</svg>

<svg width="428" height="512" fill="none" xmlns="http://www.w3.org/2000/svg"><path d="M128.667 298.667h106.666V384H128.667v-85.333zm192-286.166v94.166h94.165l-94.165-94.166zm106.666 136.832V512H.667V64c0-35.35 28.65-64 64-64H278v149.333h149.333zM342 256l-64 48v-48H86v170.667h192v-48l64 48V256z" fill="#7C7C7C"/></svg>
